src/assets/hangman-logo.svg

<svg width="310" height="101" viewBox="0 0 310 101" fill="none" xmlns="http://www.w3.org/2000/svg">
<path d="M2.38404 82.4299L11.8867 61.7315L11.6692 77.0529L8.557 83.5689C7.23234 86.3423 3.44777 90.3185 1.69912 87.7909C0.498162 86.055 1.50332 84.3483 2.38404 82.4299Z" fill="black" stroke="black" stroke-width="0.5"/>
<path d="M27.3289 82.4299L17.8263 61.7315L18.0437 77.0529L21.1559 83.5689C22.4806 86.3423 26.2652 90.3185 28.0138 87.7909C29.2148 86.055 28.2096 84.3483 27.3289 82.4299Z" fill="black" stroke="black" stroke-width="0.5"/>
<rect x="0.353553" y="-2.98023e-08" width="4.0988" height="34.7575" rx="2.0494" transform="matrix(0.707107 0.707107 0.707107 -0.707107 12.2484 27.2987)" fill="black" stroke="black" stroke-width="0.5"/>
<rect x="-0.25" y="0.25" width="6.71126" height="88.0382" rx="3.35563" transform="matrix(-1 0 0 1 17.7967 0.286804)" fill="black" stroke="black" stroke-width="0.5"/>
<rect x="-0.5" y="0.5" width="1.40375" height="31.8513" rx="0.701876" transform="matrix(-1 0 0 1 55.7567 2.69057)" fill="black" stroke="black"/>
<rect x="0.25" y="0.25" width="6.55449" height="53.5844" rx="3.27725" transform="matrix(-1.19249e-08 1 1 1.19249e-08 11.0156 2.98122e-09)" fill="black" stroke="black" stroke-width="0.5"/>
<path d="M66.0681 36.317C66.0102 36.424 65.9504 36.5281 65.8887 36.6294C64.4904 38.9285 61.0957 39.4633 58.8556 37.9722C56.4216 36.352 55.8994 33.0807 57.9436 30.9902C59.3925 29.5086 60.9944 29.0981 61.891 29.134C63.6037 29.2025 64.7933 29.924 65.586 30.8031C66.9209 32.2834 67.0166 34.5639 66.0681 36.317Z" fill="black" stroke="black" stroke-width="0.25" stroke-linecap="round" stroke-linejoin="round"/>
<path d="M52.4551 64.5743C52.6062 61.9014 52.779 58.2431 52.8795 55.984L60.5861 55.5731C60.6858 55.6955 60.6371 59.8569 60.9512 63.8406C61.1529 66.3979 61.5299 71.8261 58.9977 71.4161C57.4629 71.1676 57.7211 69.5674 57.6031 68.0171C57.4702 66.2721 57.35 63.9483 57.283 62.4698C57.2487 61.7108 56.8983 60.4069 56.4814 61.0422C56.2432 61.4053 56.2185 61.8529 56.1945 62.2868L56.1938 62.2991L55.8951 67.7094C55.56 70.3655 54.834 71.5982 54.2198 71.5982C53.697 71.5982 53.3069 71.3947 53.017 71.0711C51.5392 69.4212 52.33 66.7857 52.4551 64.5743Z" fill="black" stroke="black" stroke-width="0.25" stroke-linecap="round" stroke-linejoin="round"/>
<path d="M52.2801 44.5214C52.2801 37.8541 54.7679 35.3332 56.1567 34.7406C57.372 37.2594 60.8134 39.1475 62.8966 39.1475C61.7856 39.7401 60.9603 42.3977 60.7867 43.9288C60.5089 46.2994 60.6709 53.016 60.7867 56.0781L52.2801 56.3744V44.5214Z" fill="black" stroke="black" stroke-width="0.25" stroke-linecap="round" stroke-linejoin="round"/>
<path d="M46.7743 50.1297C47.4114 42.6443 53.3572 35.4775 56.0116 34.8405C53.973 36.3694 52.3332 41.3778 52.2801 43.5544C51.006 43.9366 50.8621 49.1741 50.7559 51.7223C50.4782 53.666 47.7896 55.5775 47.007 53.7768C46.5785 52.7908 46.6324 51.2083 46.7743 50.1297Z" fill="black" stroke="black" stroke-width="0.25" stroke-linecap="round" stroke-linejoin="round"/>
<path d="M62.8028 51.0143C62.6682 47.7714 61.387 45.5368 60.6932 44.7562C60.6932 41.1115 62.1727 39.4093 62.6963 39.1475C62.445 39.5245 63.1575 40.8338 63.5083 41.5354C64.5374 43.5936 65.442 46.4175 66.0162 48.8373C66.5896 51.2538 66.1476 55.6692 63.8986 54.6155C62.6138 54.0135 62.8616 52.4319 62.8028 51.0143Z" fill="black" stroke="black" stroke-width="0.25" stroke-linecap="round" stroke-linejoin="round"/>
<path d="M104.184 39C106.104 39 107.064 45 107.064 57C107.064 69 106.2 75 104.472 75C102.744 75 101.832 74.736 101.736 74.208L101.304 69.312V65.424C101.304 64.608 101.208 64.44 101.016 64.92C100.824 65.4 100.536 66.528 100.152 68.304L94.392 75.72H85.464L79.2 70.968L75.672 62.472V51.672L79.272 43.104L85.896 38.28H94.968L100.296 44.472C100.632 46.152 100.872 46.992 101.016 46.992C101.208 46.944 101.304 46.032 101.304 44.256C101.304 40.752 102.264 39 104.184 39ZM95.904 70.176L101.304 62.76V51.024L95.904 43.896H86.04L81.432 50.952V62.976L86.4 70.176H95.904ZM137.65 38.28L142.978 40.656L146.65 46.416V63.048C146.65 71.016 145.69 75 143.77 75C141.85 75 140.89 71.256 140.89 63.768V44.04H128.002L122.89 50.232C122.218 52.824 121.882 57.576 121.882 64.488C121.882 71.496 120.922 75 119.002 75C117.082 75 116.122 69 116.122 57C116.122 45 117.082 39 119.002 39C120.922 39 121.882 40.776 121.882 44.328C121.882 47.928 122.314 48.336 123.178 45.552L129.658 38.28H137.65ZM189.548 42.024C189.548 44.136 188.012 45.192 184.94 45.192C182.396 44.232 181.1 43.896 181.052 44.184C181.004 44.472 181.94 45.48 183.86 47.208V58.584L179.828 65.568L173.06 69.312C170.372 69.312 167.588 69.384 164.708 69.528L160.892 70.824V73.704L162.548 75H177.884L185.372 80.328V87.888C185.372 88.896 184.412 89.4 182.492 89.4C180.572 89.4 179.612 89.136 179.612 88.608V84.072L175.652 80.544H155.132V71.112L160.1 68.232C162.404 68.28 162.164 67.776 159.38 66.72L154.124 59.232V49.296L158.228 42.168L165.068 38.28H171.476C172.868 38.808 175.988 39.024 180.836 38.928C183.956 38.928 186.188 39.192 187.532 39.72C188.876 40.2 189.548 40.968 189.548 42.024ZM172.772 63.912L178.1 58.512V49.368L172.772 43.896H165.284L159.884 49.296V58.512L165.284 63.912H172.772ZM227.982 38.28V63.048C227.982 71.016 227.022 75 225.102 75C223.182 75 222.222 70.896 222.222 62.688V47.064L220.71 44.04H215.526C214.182 48.696 213.51 55.032 213.51 63.048C213.51 71.016 212.598 75 210.774 75C208.95 75 208.038 70.896 208.038 62.688V46.992L206.742 44.04H202.494L199.614 49.944C199.374 51.144 199.182 52.944 199.038 55.344C198.942 57.744 198.894 60.72 198.894 64.272C198.894 71.424 197.934 75 196.014 75C194.094 75 193.134 69 193.134 57C193.134 45 194.094 39 196.014 39C197.934 39 198.894 40.704 198.894 44.112C198.894 47.424 199.206 47.736 199.83 45.048L203.718 38.28H211.062C212.07 41.4 212.79 43.416 213.222 44.328C213.702 45.24 214.11 45.072 214.446 43.824L218.19 38.28H227.982ZM262.528 39C264.448 39 265.408 45 265.408 57C265.408 69 264.544 75 262.816 75C261.088 75 260.176 74.736 260.08 74.208L259.648 69.312V65.424C259.648 64.608 259.552 64.44 259.36 64.92C259.168 65.4 258.88 66.528 258.496 68.304L252.736 75.72H243.808L237.544 70.968L234.016 62.472V51.672L237.616 43.104L244.24 38.28H253.312L258.64 44.472C258.976 46.152 259.216 46.992 259.36 46.992C259.552 46.944 259.648 46.032 259.648 44.256C259.648 40.752 260.608 39 262.528 39ZM254.248 70.176L259.648 62.76V51.024L254.248 43.896H244.384L239.776 50.952V62.976L244.744 70.176H254.248ZM295.994 38.28L301.322 40.656L304.994 46.416V63.048C304.994 71.016 304.034 75 302.114 75C300.194 75 299.234 71.256 299.234 63.768V44.04H286.346L281.234 50.232C280.562 52.824 280.226 57.576 280.226 64.488C280.226 71.496 279.266 75 277.346 75C275.426 75 274.466 69 274.466 57C274.466 45 275.426 39 277.346 39C279.266 39 280.226 40.776 280.226 44.328C280.226 47.928 280.658 48.336 281.522 45.552L288.002 38.28H295.994Z" fill="black"/>
</svg>

<svg width="310" height="101" fill="none" xmlns="http://www.w3.org/2000/svg"><path d="m2.384 82.43 9.503-20.699-.218 15.322-3.112 6.516c-1.325 2.773-5.11 6.75-6.858 4.222-1.2-1.736-.196-3.443.685-5.361zm24.945 0-9.503-20.7.218 15.322 3.112 6.516c1.325 2.773 5.11 6.75 6.858 4.222 1.2-1.736.196-3.443-.685-5.361z" fill="#000" stroke="#000" stroke-width=".5"/><rect x=".354" width="4.099" height="34.758" rx="2.049" transform="scale(1 -1) rotate(-45 -26.828 -28.434)" fill="#000" stroke="#000" stroke-width=".5"/><rect x="-.25" y=".25" width="6.711" height="88.038" rx="3.356" transform="matrix(-1 0 0 1 17.797 .287)" fill="#000" stroke="#000" stroke-width=".5"/><rect x="-.5" y=".5" width="1.404" height="31.851" rx=".702" transform="matrix(-1 0 0 1 55.757 2.69)" fill="#000" stroke="#000"/><rect x=".25" y=".25" width="6.554" height="53.584" rx="3.277" transform="matrix(0 1 1 0 11.016 0)" fill="#000" stroke="#000" stroke-width=".5"/><path d="M66.068 36.317a7.053 7.053 0 0 1-.18.312c-1.398 2.3-4.792 2.834-7.032 1.343-2.434-1.62-2.957-4.891-.912-6.982 1.448-1.481 3.05-1.892 3.947-1.856 1.713.069 2.902.79 3.695 1.67 1.335 1.48 1.43 3.76.482 5.513zM52.455 64.574c.151-2.673.324-6.33.425-8.59l7.706-.41c.1.122.051 4.283.365 8.267.202 2.557.579 7.985-1.953 7.575-1.535-.248-1.277-1.849-1.395-3.399a203.784 203.784 0 0 1-.32-5.547c-.034-.76-.385-2.063-.802-1.428-.238.363-.263.81-.287 1.245v.012l-.299 5.41c-.335 2.656-1.061 3.89-1.675 3.89-.523 0-.913-.204-1.203-.528-1.478-1.65-.687-4.285-.562-6.497z" fill="#000" stroke="#000" stroke-width=".25" stroke-linecap="round" stroke-linejoin="round"/><path d="M52.28 44.521c0-6.667 2.488-9.188 3.877-9.78 1.215 2.518 4.656 4.407 6.74 4.407-1.111.592-1.937 3.25-2.11 4.78-.278 2.371-.116 9.088 0 12.15l-8.507.296V44.521z" fill="#000" stroke="#000" stroke-width=".25" stroke-linecap="round" stroke-linejoin="round"/><path d="M46.774 50.13c.637-7.486 6.583-14.653 9.238-15.29-2.039 1.53-3.679 6.538-3.732 8.714-1.274.383-1.418 5.62-1.524 8.168-.278 1.944-2.966 3.855-3.749 2.055-.428-.986-.375-2.569-.233-3.647zm16.029.884c-.135-3.243-1.416-5.477-2.11-6.258 0-3.645 1.48-5.347 2.003-5.608-.251.377.462 1.686.812 2.387 1.03 2.059 1.934 4.883 2.508 7.302.574 2.417.132 6.832-2.117 5.778-1.285-.602-1.037-2.183-1.096-3.6z" fill="#000" stroke="#000" stroke-width=".25" stroke-linecap="round" stroke-linejoin="round"/><path d="M104.184 39c1.92 0 2.88 6 2.88 18s-.864 18-2.592 18c-1.728 0-2.64-.264-2.736-.792l-.432-4.896v-3.888c0-.816-.096-.984-.288-.504-.192.48-.48 1.608-.864 3.384l-5.76 7.416h-8.928L79.2 70.968l-3.528-8.496v-10.8l3.6-8.568 6.624-4.824h9.072l5.328 6.192c.336 1.68.576 2.52.72 2.52.192-.048.288-.96.288-2.736 0-3.504.96-5.256 2.88-5.256zm-8.28 31.176 5.4-7.416V51.024l-5.4-7.128H86.04l-4.608 7.056v12.024l4.968 7.2h9.504zM137.65 38.28l5.328 2.376 3.672 5.76v16.632c0 7.968-.96 11.952-2.88 11.952s-2.88-3.744-2.88-11.232V44.04h-12.888l-5.112 6.192c-.672 2.592-1.008 7.344-1.008 14.256 0 7.008-.96 10.512-2.88 10.512s-2.88-6-2.88-18 .96-18 2.88-18 2.88 1.776 2.88 5.328c0 3.6.432 4.008 1.296 1.224l6.48-7.272h7.992zm51.898 3.744c0 2.112-1.536 3.168-4.608 3.168-2.544-.96-3.84-1.296-3.888-1.008-.048.288.888 1.296 2.808 3.024v11.376l-4.032 6.984-6.768 3.744c-2.688 0-5.472.072-8.352.216l-3.816 1.296v2.88L162.548 75h15.336l7.488 5.328v7.56c0 1.008-.96 1.512-2.88 1.512s-2.88-.264-2.88-.792v-4.536l-3.96-3.528h-20.52v-9.432l4.968-2.88c2.304.048 2.064-.456-.72-1.512l-5.256-7.488v-9.936l4.104-7.128 6.84-3.888h6.408c1.392.528 4.512.744 9.36.648 3.12 0 5.352.264 6.696.792 1.344.48 2.016 1.248 2.016 2.304zm-16.776 21.888 5.328-5.4v-9.144l-5.328-5.472h-7.488l-5.4 5.4v9.216l5.4 5.4h7.488zm55.21-25.632v24.768c0 7.968-.96 11.952-2.88 11.952s-2.88-4.104-2.88-12.312V47.064l-1.512-3.024h-5.184c-1.344 4.656-2.016 10.992-2.016 19.008 0 7.968-.912 11.952-2.736 11.952-1.824 0-2.736-4.104-2.736-12.312V46.992l-1.296-2.952h-4.248l-2.88 5.904c-.24 1.2-.432 3-.576 5.4-.096 2.4-.144 5.376-.144 8.928 0 7.152-.96 10.728-2.88 10.728s-2.88-6-2.88-18 .96-18 2.88-18 2.88 1.704 2.88 5.112c0 3.312.312 3.624.936.936l3.888-6.768h7.344c1.008 3.12 1.728 5.136 2.16 6.048.48.912.888.744 1.224-.504l3.744-5.544h9.792zm34.546.72c1.92 0 2.88 6 2.88 18s-.864 18-2.592 18c-1.728 0-2.64-.264-2.736-.792l-.432-4.896v-3.888c0-.816-.096-.984-.288-.504-.192.48-.48 1.608-.864 3.384l-5.76 7.416h-8.928l-6.264-4.752-3.528-8.496v-10.8l3.6-8.568 6.624-4.824h9.072l5.328 6.192c.336 1.68.576 2.52.72 2.52.192-.048.288-.96.288-2.736 0-3.504.96-5.256 2.88-5.256zm-8.28 31.176 5.4-7.416V51.024l-5.4-7.128h-9.864l-4.608 7.056v12.024l4.968 7.2h9.504zm41.746-31.896 5.328 2.376 3.672 5.76v16.632c0 7.968-.96 11.952-2.88 11.952s-2.88-3.744-2.88-11.232V44.04h-12.888l-5.112 6.192c-.672 2.592-1.008 7.344-1.008 14.256 0 7.008-.96 10.512-2.88 10.512s-2.88-6-2.88-18 .96-18 2.88-18 2.88 1.776 2.88 5.328c0 3.6.432 4.008 1.296 1.224l6.48-7.272h7.992z" fill="#000"/></svg>
